X:1
T:Leaving Smiles
T:James Edwin McConnell
T:Leaving Smiles
T:Public Domain
T:Public Domain
C:James Edwin McConnell
Z:Public Domain
%%score ( 1 2 ) ( 3 4 )
L:1/8
M:4/4
K:Ab
V:1 treble 
V:2 treble 
V:3 bass 
V:4 bass 
V:1
 [CE][Ec][=D=B][Ec] [F=d]2 [Ec]2 | [=DF]2 [Dc]2 [DB]3 [DA] | [DA][DG][DB][DG] [DF]2 [DE]2 | %3
w: 1.~In the light that Je- sus|sheds on you, Thro’|ma- ny bless- ings day by|
w: 2.~Sor- rows all a- bout you,|grief and pain, And|bur- dens that are hard to|
w: 3.~Then in joy and glad- ness|dai- ly be The|Sav- ior’s wit- ness staunch and|
 [Ec]6 z2 | [CE][Ec][=D=B][Ec] [F=d]2 [Ec]2 | [=DF]2 [Dc]2 [DB]3 [DA] | %6
w: day,|You can be His ser- vant|kind and true, By|
w: bear;|You can mix the sun- shine|with the rain, By|
w: true;|Show- ing un- to o- thers|how ’twas He Who|
 [DA][DG][D^F][DG] [Ec]2 [DB]2 | [CA]6 z2 ||"^Refrain" [Ge][Fd][DB][EG] [DF]2 [DG]2 | (EA)(GF E4) | %10
w: leav- ing smiles a- long your|way.|||
w: mak- ing light- er some- one’s|care.|You can light- en some- one’s|bur- * den, * *|
w: shed His smil- ing love on|you.|||
 [Ge][Fd][DB][EG] [DF]2 [DE]2 | (EAGF E4) | [CE][CF][CA][Ec] [Ee][Ec][=EB][EA] | %13
w: |||
w: bright- en some- one’s day; You|can * * * *|the lone- li- ness from some- one’s heart,|
w: |||
 [EG]2 [DF]2 [DF]4 | [DG][Fd][Ec][DB] [=DF]2 [_DG]2 | [CA]8 |] %16
w: |||
w: Leav- ing smiles|a- long the way. * *||
w: |||
V:2
 x8 | x8 | x8 | x8 | x8 | x8 | x8 | x8 || x8 | c2 c6 | x8 | c8 | x8 | x8 | x8 | x8 |] %16
w: ||||||||||||||||
w: |||||||||You can||drive|||||
V:3
 [A,,A,][A,,A,][A,,A,][A,,A,] [A,,A,]2 [A,,A,]2 | [B,,A,]2 [B,,A,]2 [B,,F,]3 [B,,B,] | %2
w: ~ ~ ~ ~ ~ ~|~ ~ ~ ~|
 [E,B,][E,B,][E,G,][E,B,] [E,A,]2 [E,G,]2 | [A,,A,]6 z2 | %4
w: ~ ~ ~ ~ ~ ~|~|
 [A,,A,][A,,A,][A,,A,][A,,A,] [A,,A,]2 [A,,A,]2 | [B,,A,]2 [B,,A,]2 [B,,F,]3 [B,,B,] | %6
w: ~ ~ ~ ~ ~ ~|~ ~ ~ ~|
 [E,B,][E,B,][E,=A,][E,B,] [E,G,]2 [E,G,]2 | [A,,E,A,]6 z2 || %8
w: ~ ~ ~ ~ ~ ~|~|
 [E,B,][E,B,][E,G,][E,B,] [E,A,]2 [E,B,]2 | [A,,A,]2 [A,,A,]2 [A,,A,]4 | %10
w: ~ ~ ~ ~ ~ ~|bur- den aye|
 [E,B,][E,B,][E,G,][E,B,] [E,A,]2 [E,G,]2 | [A,,A,]2 [A,,A,]2 [A,,A,]4 | %12
w: ~ ~ ~ ~ ~ ~|some- one’s day;|
 [A,,A,][A,,A,][A,,E,][A,,A,] [A,C]A,[C,C][C,B,] | [D,A,]2 [D,A,]2 [D,A,]4 | %14
w: ||
 [E,B,][E,A,][E,G,][E,G,] [B,,A,]2 [E,B,]2 | [A,,E,A,]8 |] %16
w: ||
V:4
 x8 | x8 | x8 | x8 | x8 | x8 | x8 | x8 || x8 | x8 | x8 | x8 | x5 A, x2 | x8 | x8 | x8 |] %16

